X: 2
T: The Ballydesmond 1
R: polka
M: 2/4
L: 1/8
K: Ador
|:"Am"EA AB|cd e2|"G"G>F GA|GE ED|
"Am"EA AB|cd ef|"G"gg/e/"Em" dB|"Am"A2 A2:|
|:"Am"a>g ab|ag ef|"G"g>f ga|"G/E"ge ed|
"Am"ea ab|ag ef|"G"ge dB|"Am"A2 A2:|
